X:1
T:When bold King Edward
M:2/4
L:1/8
K:G
 G| GD B,D| G3/2 G/2 GG| AA AA| A2 z| G/2A/2| BB BB| cB A3/2 G/2| GG BA|\
 G2 z| G| GD B,D| G2 z G| AA AA| A2 z| G/2A/2| BB BB| cB A3/2 G/2|\
 GG BA| G2 z||
